theme/icons/chart.svg

<svg fill="none" height="24" width="24" xmlns="http://www.w3.org/2000/svg"><g clip-rule="evenodd" fill="#f4f4f7" fill-rule="evenodd"><path d="m22.775 8a9 9 0 0 1 .225 2h-9v-9a9 9 0 0 1 8.775 7zm-2.067 0a6.999 6.999 0 0 0 -4.708-4.708v4.708z"/><path d="m1 14a9 9 0 0 1 11-8.775v6.775h6.775a9 9 0 1 1 -17.775 2zm15.803 0h-6.803v-6.804a6.804 6.804 0 1 0 6.803 6.804z"/></g></svg>

<svg fill="none" height="24" width="24" xmlns="http://www.w3.org/2000/svg">
    <g clip-rule="evenodd" fill="#f4f4f7" fill-rule="evenodd">
        <path d="M22.775 8A9 9 0 0 1 23 10h-9V1a9 9 0 0 1 8.775 7zm-2.067 0A6.999 6.999 0 0 0 16 3.292V8z"/>
        <path d="M1 14a9 9 0 0 1 11-8.775V12h6.775A9 9 0 1 1 1 14zm15.803 0H10V7.196A6.804 6.804 0 1 0 16.803 14z"/>
    </g>
</svg>
